X:189
T:Paddy in Scotland
M:C|
L:1/8
K:D
dAAA BAGF|GABd cABc|d2 ed cABc|dfed cABc|
dAAA BAGF|GABd cABc|d2 ed cABc|dfec d2 d2 :|
|:Adfd Adfd|gggf edcB|Acec Acec|fffe dcBA|
Adfd Adfd|gggf efge|a2 AA dcBA|Acec d2 d2 :|
